X: 1871
T: Sid Parish's Polka
C:Bob Rummery, Sorrento, WA
B: australian traditional tunes wiki
M:2/4
L:1/16
R: Polka
Q: 1/4=100
K:D
V:1 
|:"D"A2dd d2A2|F2AA A2F2|"A7"E2E2 EGFE|"D"F2A2A4|
A2dd d2A2|F2AA A2F2|"A7"E2E2 EGFE|1"D"D2F2D4:|2"D"D2F2 D2FD||
|:"A"E2EF G2E2|"D"FEFG AGF2|"G"A2B2 "A"c2 (3BcB|A2A2A4|
E3F G2E2|"D"FEFG AGF2|"G"A2B2 "A7"c2(3ABc|"D"d2d2d4:|
% abcbook-tune_id 6342d53a763c975c3a4df1bb


% abcbook-boost 0
% abcbook-tablature 
% abcbook-transpose 
% abcbook-lastupdated 1665324389538
% abcbook-soundfonts 
% abcbook-repeats 1
% NFF Book 2008

